X: 25650
T: Martin Rochford's
R: reel
M: 4/4
K: Cmajor
FDCD FGAB|cAdA cAGA|FDCD FGAd|cAGA FDD2|
FDCD FGAB|cAdA cAGA|FDCD FGAd|cAGA F4||
f3f e2dc|Addd Addd|fedf edcA|cAGA FDD2|
f3f e2dc|Addc d3e|fgaf efge|cAGA F4||

